icons-rebrand/svg/live-regular.svg

<svg width="32" height="32" viewBox="0 0 32 32" fill="none" xmlns="http://www.w3.org/2000/svg">
<path d="M7.5693 12.4H6.2793V19.6H10.9993V18.55H7.5693V12.4Z" fill="#0F0F0F"/>
<path d="M13.2624 12.4H11.9824V19.6H13.2624V12.4Z" fill="#0F0F0F"/>
<path d="M17.2487 18.5L19.2287 12.4H20.4787L18.0087 19.6H16.4387L13.9487 12.4H15.2887L17.2487 18.5Z" fill="#0F0F0F"/>
<path d="M25.5219 16.44V15.47H22.4519V13.41H25.8119V12.4H21.1719V19.6H25.8119V18.6H22.4519V16.44H25.5219Z" fill="#0F0F0F"/>
<path d="M7 6.24976H25C26.2593 6.25119 27.4667 6.75209 28.3572 7.64258C29.2477 8.53307 29.7486 9.74042 29.75 10.9998V20.9998C29.7486 22.2591 29.2477 23.4664 28.3572 24.3569C27.4667 25.2474 26.2593 25.7483 25 25.7498H7C5.74066 25.7483 4.53331 25.2474 3.64282 24.3569C2.75233 23.4664 2.25143 22.2591 2.25 20.9998V10.9998C2.25143 9.74042 2.75233 8.53307 3.64282 7.64258C4.53331 6.75209 5.74066 6.25119 7 6.24976ZM27.297 23.2968C27.9063 22.6875 28.249 21.8614 28.25 20.9998V10.9998C28.249 10.1381 27.9063 9.31204 27.297 8.70276C26.6877 8.09348 25.8616 7.75075 25 7.74976H7C6.13835 7.75075 5.31228 8.09348 4.703 8.70275C4.09372 9.31203 3.75099 10.1381 3.75 10.9998V20.9998C3.751 21.8614 4.09372 22.6875 4.703 23.2968C5.31228 23.906 6.13835 24.2488 7 24.2498H25C25.8616 24.2488 26.6877 23.906 27.297 23.2968Z" fill="#0F0F0F"/>
</svg>

<svg xmlns="http://www.w3.org/2000/svg" width="32" height="32" viewBox="0 0 32 32"><path fill-rule="evenodd" d="M7 6.25h18A4.756 4.756 0 0 1 29.75 11v10A4.755 4.755 0 0 1 25 25.75H7A4.756 4.756 0 0 1 2.25 21V11A4.755 4.755 0 0 1 7 6.25Zm20.297 17.047c.61-.61.952-1.436.953-2.297V11A3.254 3.254 0 0 0 25 7.75H7A3.254 3.254 0 0 0 3.75 11v10A3.254 3.254 0 0 0 7 24.25h18a3.254 3.254 0 0 0 2.297-.953ZM7.569 12.4H6.28v7.2H11v-1.05H7.57V12.4Zm5.693 0h-1.28v7.2h1.28v-7.2Zm3.987 6.1 1.98-6.1h1.25l-2.47 7.2h-1.57l-2.49-7.2h1.34l1.96 6.1Zm8.273-2.06v-.97h-3.07v-2.06h3.36V12.4h-4.64v7.2h4.64v-1h-3.36v-2.16h3.07Z" clip-rule="evenodd"/></svg>
